co/list_plus.svg

<svg viewBox="0 0 24 24" fill="none" xmlns="http://www.w3.org/2000/svg" height="1em" width="1em">
  <path d="M19 20h-2v-3h-3v-2h3v-3h2v3h3v2h-3v3Zm-7-3H2v-2h10v2Zm3-4H2v-2h13v2Zm0-4H2V7h13v2Z" fill="#000"/>
</svg>

<svg viewBox="0 0 24 24" fill="none" xmlns="http://www.w3.org/2000/svg" height="1em" width="1em">
  <path d="M19 20H17V17H14V15H17V12H19V15H22V17H19V20ZM12 17H2V15H12V17ZM15 13H2V11H15V13ZM15 9H2V7H15V9Z" fill="black"/>
</svg>
